svgs/sharp-light/blender.svg

<svg xmlns="http://www.w3.org/2000/svg" viewBox="0 0 512 512"><!--! Font Awesome Pro 6.6.0 by @fontawesome - https://fontawesome.com License - https://fontawesome.com/license (Commercial License) Copyright 2024 Fonticons, Inc. --><path d="M0 0L16 0 128 0l24 0 8.1 0L479 0l33 0-8 32-24 96L424 352l24 0 32 0 0 32 0 96 0 32-32 0-320 0-32 0 0-32 0-96 0-32 32 0 29.3 0L148 240 16 240 0 240l0-16L0 16 0 0zM423 224l-119 0-16 0 0-32 16 0 127 0 16-64-143 0-16 0 0-32 16 0 151 0 16-64L162.8 32l26.7 320L391 352l32-128zM128 384l0 96 320 0 0-96-32 0-256 0-32 0zM32 32l0 176 113.3 0L130.7 32 32 32zM288 408a24 24 0 1 1 0 48 24 24 0 1 1 0-48z"/></svg>

<svg xmlns="http://www.w3.org/2000/svg" viewBox="0 0 512 512"><!--! Font Awesome Pro 6.5.2 by @fontawesome - https://fontawesome.com License - https://fontawesome.com/license (Commercial License) Copyright 2024 Fonticons, Inc. --><path d="M0 0H16 128h24 8.1H479h33l-8 32-24 96L424 352h24 32v32 96 32H448 128 96V480 384 352h32 29.3L148 240H16 0V224 16 0zM423 224H304 288V192h16H431l16-64H304 288V96h16H455l16-64H162.8l26.7 320H391l32-128zM128 384v96H448V384H416 160 128zM32 32V208H145.3L130.7 32H32zM288 408a24 24 0 1 1 0 48 24 24 0 1 1 0-48z"/></svg>
